packages/core/src/svgs/tokens/mono/MC.svg

<svg width="24" height="24" viewBox="0 0 24 24" fill="none" xmlns="http://www.w3.org/2000/svg">
<path fill-rule="evenodd" clip-rule="evenodd" d="M11.9999 2C17.5124 2 22 6.48748 22 11.9999C22 17.5124 17.5124 22 11.9999 22C6.48748 22 2 17.5124 2 11.9999C2 6.48748 6.48748 2 11.9999 2ZM11.9999 16.3749C10.75 15.2625 10.125 13.8125 10.125 11.9999C10.125 10.1875 10.75 8.73748 11.9999 7.62498C13.25 8.73748 13.8749 10.1875 13.8749 11.9999C13.8749 13.8125 13.25 15.2312 11.9999 16.3749Z" fill="white"/>
<path d="M2.28149 14.3937C2.319 14.4562 4.51274 18.3125 8.09398 18.2499C9.26278 18.2313 10.5565 17.4687 12.0002 16.3749C13.2503 15.2625 13.8752 13.8125 13.8752 12C13.8752 10.1876 13.2503 8.73749 12.0002 7.62499C12.0002 7.62499 14.0127 5.70625 16.3752 5.75C18.2252 5.78124 20.3127 6.99374 21.8627 10.3312C22.0991 11.7633 22.0214 13.2298 21.6349 14.6289C21.2483 16.0279 20.5622 17.3262 19.6241 18.4338C18.6859 19.5414 17.5182 20.4317 16.2018 21.0432C14.8854 21.6547 13.4517 21.9726 12.0002 21.9749C9.7643 21.9862 7.58964 21.2443 5.82662 19.8691C4.06362 18.4939 2.81485 16.5651 2.28149 14.3937Z" fill="white"/>
</svg>

<svg xmlns="http://www.w3.org/2000/svg" width="24" height="24" fill="none" viewBox="0 0 24 24">
    <path fill="#fff" fill-rule="evenodd" d="M12 2c5.512 0 10 4.487 10 10 0 5.512-4.488 10-10 10-5.513 0-10-4.488-10-10C2 6.487 6.487 2 12 2m0 14.375c-1.25-1.113-1.875-2.562-1.875-4.375 0-1.812.625-3.263 1.875-4.375 1.25 1.112 1.875 2.563 1.875 4.375 0 1.813-.625 3.231-1.875 4.375" clip-rule="evenodd"/>
    <path fill="#fff" d="M2.281 14.394c.038.062 2.232 3.919 5.813 3.856 1.169-.019 2.463-.781 3.906-1.875 1.25-1.113 1.875-2.562 1.875-4.375 0-1.812-.625-3.263-1.875-4.375 0 0 2.013-1.919 4.375-1.875 1.85.031 3.938 1.244 5.488 4.581A10.015 10.015 0 0 1 12 21.975a9.956 9.956 0 0 1-9.719-7.581"/>
</svg>
